!!!COM: Felix Mendelssohn
!!!CNT: Deutsch
!!!TXO: Deutsch
!!!OTL: Herbstlied
!!!LYR: C. Klingemann
!!!OPS: Op. 84
!!!ONM: No. 2
!!!ENC: Daniel Alt & Leigh VanHandel
!!!YOR: Sa2mmtliche Lieder fu2r eine Singstimme 
!!!YOR: Neu revidirt von Dr. L. Benda, Ausgabe fu2r mittlere Stimme
!!!YOR: Braunschweig. Henry Litolff's Verlag. Boston and New York: Arthur P. Schmidt.
!!!ODT: 1839/
**kern	**silbe
*staff1	*
=1-	=1
*clefG2	*
*k[]	*
*met(C)	*
*M4/4	*
1r	.
=2	=2
1r	.
=3	=3
1r	.
=4	=4
2r	.
4r	.
{4e	{Im
=5	=5
4.cc	Wal-
8b	-de
8a	rau-
8a-	-schen
8an	du2r-
8f	-re
=6	=6
8e	Bla2t-
gq	|
8f	|
4e}	-ter,}
4r	.
{4e	{es
=7	=7
4a-	schweigt
4an	der
4b	Sang,
4cc	das
=8	=8
4.dd	Gru2n
8b	ver-
4g#}	-dorrt,}
8r	.
{8e	{im
=9	=9
4.cc	Flu-
8b	-ge
8a	zieh'n,
8a-	wie
8an	Wind
8f	und
=10	=10
8e	Wet-
gq	|
8f	|
4e}	-ter,}
4r	.
{4e	{der
=11	=11
4f#	Som-
4gn	-mer
4a	und
4b	die
=12	=12
4.cc	Sa2n-
8a	-ger
4f#}	fort,}
8r	.
{8gn	{der
=13	=13
4a	Som-
4b	-mer
4cc	und
4dd	die
=14	=14
4.ee	Sa2n-
8cc	|
4a}	-ger,}
8r	.
{8cc	{die
=15	=15
[2b	Sa2n-
8b]	|
8a	|
8a	-ger
8g	|
=16	=16
8g}	fort,}
8r	.
{4ee	{im
4dd	Flu-
4cc	-ge
=17	=17
4b	zieh'n,
4cc	wie
4b	Wind
4a	und
=18	=18
4g	Wet-
8a}	-ter,}
{8a	{der
4g	Som-
4g-	-mer
=19	=19
4b	und
4a	die
4f#	Sa2n-
4d#	-ger
=20	=20
2e}	fort.}
2r	.
=21	=21
4r	.
{4e	{Was
4.g	zagst
8f	du,
=22	=22
2e}	Herz?}
2r	.
=23	=23
4r	.
{4e	{Was
4.g	zagst
8f	du,
=24	=24
2f	tru2-
4e}	-be,}
4r	.
=25	=25
4r	.
{4g#	{was
4b	zagst
4dd	du
=26	=26
1dd	tru2-
=27	=27
2dd}	-be?}
4r	.
{4e	{Die
=28	=28
*k[f#c#g#]	*
2.cc#	Lie-
4a	-be
=29	=29
4e	bleibt,
4a	dir
4g#	bleibt
4a	die
=30	=30
1dd	Lie-
=31	=31
2b}	-be,}
4r	.
{4e	{die
=32	=32
2ee	Lie-
2dd	-be
=33	=33
1cc#}	bleibt,}
=34	=34
4r	.
{4f#	{die
4g#	Lie-
4a#	-be
=35	=35
4b	bleibt,
4f#	dir
4dd	bleibt
4b	die
=36	=36
2a	Lei-
2b	|
=37	=37
2cc#}	-be!}
2r	.
=38	=38
{2cc#	{Was
4cc#	zagst
4dd#	du,
=39	=39
2ee}	Herz?}
2r	.
=40	=40
{2cc#	{Was
4cc#	sagst
4dd#	du
=41	=41
2dd#	tru2-
2ee}	-be?}
=42	=42
4r	.
{4f#	{Die
4g#	Lie-
4a#	-be
=43	=43
4b	bleibt,
4f#	dir
4dd	bleibt
4b	die
=44	=44
1a	Lie-
=45	=45
2.cc#	|
4b	|
=46	=46
4a}	-be!}
4r	.
2r	.
=47	=47
*k[]	*
1r	.
=48	=48
1r	.
=49	=49
2r	.
8r	.
{8e	{Will
8e	denn
8e	die
=50	=50
4.a	Welt
8a	ganz
4a-	ein-
4an	-sam
=51	=51
4cc	ste-
4b}	-hen,}
8r	.
{8b	{well
8b	al-
8b	-les
=52	=52
[2dd	zieht
8dd]	|
8cc	und
8b	mich
8a	ver-
=53	=53
2g#}	-la2sst,}
4r	.
{4e	{wenn
=54	=54
4a	Lenz
4e	und
4f	Lieb'
4a	und
=55	=55
4cc	Ju-
4g#	-gend
4g#	ge-
4an}	-hen,}
=56	=56
4r	.
{4a	{was
4a	bleibt
4g#	denn
=57	=57
1b}	mir?}
=58	=58
4r	.
{4a	{was
4a	ha2lt
4g#	noch
=59	=59
1b}	fest,}
=60	=60
2r	.
{[2dd#	{was
=61	=61
4ee-]	|
4cc	|
4b	ha2lt
4a	noch
=62	=62
2g#}	fest?}
2r	.
=63	=63
4r	.
{4e	{Was
4e	sorgst
4e	du,
=64	=64
1f#}	Herz?}
=65	=65
4r	.
{4f#	{was
4g#	sorgst
4an	auf's
=66	=66
2a	Neu-
[2g#	-e?
=67	=67
2g#]}	|}
{4f#	{Die
4e	|
=68	=68
*k[f#c#g#]	*
2.cc#	Treu-
4a	-e
=69	=69
4e	bleibt,
4a	dir
4g#	bleibt
4a	die
=70	=70
1dd	Treu-
=71	=71
2b}	-e,}
4r	.
{4e	{die
=72	=72
2ee	Treu-
2dd	-e
=73	=73
1cc#}	bleibt,}
=74	=74
4r	.
{4f#	{die
4g#	Treu-
4a#	-e
=75	=75
4b	bleibt,
4f#	die
4dd	bleibt
4b	die
=76	=76
2a	Treu-
2b	|
=77	=77
2cc#}	-e!}
2r	.
=78	=78
{2cc#	{Was
4cc#	sorgst
4dd#	du,
=79	=79
2ee}	Herz?}
2r	.
=80	=80
4r	.
{4cc#	{was
4cc#	sorgst
4dd#	auf's
=81	=81
2dd#	Neu-
2ee}	-e?}
=82	=82
4r	.
{4f#	{Die
4g#	Treu-
4a#	-e
=83	=83
4b	bleibt,
4f#	dir
4dd	bleibt
4b	die
=84	=84
2a	Treu-
4cc#	|
4b	|
=85	=85
2a}	-e,}
4r	.
{4a	{die
=86	=86
4dd	Treu-
4b	|
4a	-e
4g#	|
=87	=87
2a}	bleibt,}
2r	.
=88	=88
{4dd	{dir
4b	|
4a	bleibt
4g#	die
=89	=89
[1a	Treu-
=90	=90
1a]	|
=91	=91
2a}	-e!}
2r	.
==	==
*-	*-
